Adwaita++/actions/22/im-irc.svg

<svg height="22" viewBox="0 0 22 22" width="22" xmlns="http://www.w3.org/2000/svg">
  <g fill="#444" transform="translate(3 3)">
    <path d="m5.4042969 6s-1.40625.0003906-1.40625 1.4003906v4.1992184c0 .77561.6382575 1.400391 1.4296875 1.400391h3.5703125l1.5000001 2 1.5-2h.572265s1.427735-.000391 1.427735-1.400391v-4.1992184c0-1.4-1.427735-1.4003906-1.427735-1.4003906z"/>
    <path d="m3.40625 2s-1.40625.0003906-1.40625 1.4003906v4.1992188c0 .6282.4207 1.1516781 1 1.3300781v-2.5292969c0-1.4 1.40625-1.4003906 1.40625-1.4003906h7.166016s.195734.0235375.427734.0859375v-1.6855469c0-1.4-1.427734-1.4003906-1.427734-1.4003906z" opacity=".3"/>
  </g>
</svg>

<svg xmlns="http://www.w3.org/2000/svg" width="22" height="22" viewBox="0 0 22 22">
 <defs>
  <style id="current-color-scheme" type="text/css">
   .ColorScheme-Text { color:#444444; } .ColorScheme-Highlight { color:#4285f4; }
  </style>
 </defs>
 <path style="fill:currentColor" class="ColorScheme-Text" d="M 5.4042969 6 C 5.4042969 6 3.9980469 6.0003906 3.9980469 7.4003906 L 3.9980469 11.599609 C 3.9980469 12.375219 4.6363044 13 5.4277344 13 L 8.9980469 13 L 10.498047 15 L 11.998047 13 L 12.570312 13 C 12.570312 13 13.998047 12.999609 13.998047 11.599609 L 13.998047 7.4003906 C 13.998047 6.0003906 12.570312 6 12.570312 6 L 5.4042969 6 z" transform="translate(3 3)"/>
 <path style="fill:currentColor;opacity:0.3" class="ColorScheme-Text" d="M 3.40625 2 C 3.40625 2 2 2.0003906 2 3.4003906 L 2 7.5996094 C 2 8.2278094 2.4207 8.7512875 3 8.9296875 L 3 6.4003906 C 3 5.0003906 4.40625 5 4.40625 5 L 11.572266 5 C 11.572266 5 11.768 5.0235375 12 5.0859375 L 12 3.4003906 C 12 2.0003906 10.572266 2 10.572266 2 L 3.40625 2 z" transform="translate(3 3)"/>
</svg>
